X:224
T:Earl of Dalhousie
R:Reel
C:Nathaniel Gow
B:The Athole Collection
M:C|
L:1/8
K:E_
g|e2ge Bagf eccf|e2ge Bagf|ecBG E/E/E Eg|e2ge B<B ge|
fagf eccf|e2 ge fdeB|c<e B>G E/E/E E||c|BEGB c2 ce|BcGB cFFc|
BEGB cdeB|c<e B>G E/E/E E<c|BEGB c2 ce|BeGB cFFc|BGAB cdef|
geBG E/E/E E||
